packages/ndla-icons/svg/common/EmailOutline.svg

<svg fill="currentColor" xmlns="http://www.w3.org/2000/svg" xmlns:xlink="http://www.w3.org/1999/xlink" version="1.1" width="24" height="24" viewBox="0 0 24 24" data-license="SIL Open Font License 1.1" data-source="Material Community Icons"><path d="M4,4H20A2,2 0 0,1 22,6V18A2,2 0 0,1 20,20H4C2.89,20 2,19.1 2,18V6C2,4.89 2.89,4 4,4M12,11L20,6H4L12,11M4,18H20V8.37L12,13.36L4,8.37V18Z" /></svg>

<svg xmlns="http://www.w3.org/2000/svg" fill="currentColor" data-license="SIL Open Font License 1.1" data-source="Material Community Icons" viewBox="0 0 24 24">
  <path d="M4 4h16a2 2 0 0 1 2 2v12a2 2 0 0 1-2 2H4a2 2 0 0 1-2-2V6c0-1.1.9-2 2-2m8 7 8-5H4l8 5m-8 7h16V8.4l-8 5-8-5V18Z"/>
</svg>
